logos/bunny-net.svg

<?xml version="1.0" encoding="UTF-8"?>
<svg width="512px" height="148px" viewBox="0 0 512 148" version="1.1" xmlns="http://www.w3.org/2000/svg" preserveAspectRatio="xMidYMid">
    <title>bunny.net</title>
    <defs>
        <linearGradient x1="29.4352883%" y1="45.3176687%" x2="80.6309178%" y2="58.7602308%" id="bunnyLinearGradient-1">
            <stop stop-color="#FEBE2D" offset="0%"></stop>
            <stop stop-color="#F85E23" offset="100%"></stop>
        </linearGradient>
        <linearGradient x1="-33.9398264%" y1="50.04095%" x2="153.690572%" y2="50.04095%" id="bunnyLinearGradient-2">
            <stop stop-color="#FBAA19" offset="0%"></stop>
            <stop stop-color="#EF3E23" offset="100%"></stop>
        </linearGradient>
        <linearGradient x1="32.8908646%" y1="96.6666487%" x2="67.1130842%" y2="3.11111053%" id="bunnyLinearGradient-3">
            <stop stop-color="#F78D1E" offset="0%"></stop>
            <stop stop-color="#F37121" offset="100%"></stop>
        </linearGradient>
        <linearGradient x1="14.4028408%" y1="75.177305%" x2="63.2274953%" y2="12.4480313%" id="bunnyLinearGradient-4">
            <stop stop-color="#FEBE2D" offset="0%"></stop>
            <stop stop-color="#F04E23" offset="100%"></stop>
        </linearGradient>
        <linearGradient x1="69.8803244%" y1="3.21352923%" x2="33.1012862%" y2="81.5809617%" id="bunnyLinearGradient-5">
            <stop stop-color="#EA4425" offset="0%"></stop>
            <stop stop-color="#FDBB27" offset="100%"></stop>
        </linearGradient>
        <linearGradient x1="-40.1271778%" y1="49.9893198%" x2="144.708119%" y2="49.9893198%" id="bunnyLinearGradient-6">
            <stop stop-color="#F47920" offset="0%"></stop>
            <stop stop-color="#E93825" offset="100%"></stop>
        </linearGradient>
        <linearGradient x1="-143.227273%" y1="49.9166667%" x2="243.363636%" y2="49.9166667%" id="bunnyLinearGradient-7">
            <stop stop-color="#FDCA0B" offset="0%"></stop>
            <stop stop-color="#F5841F" offset="100%"></stop>
        </linearGradient>
        <linearGradient x1="39.6769732%" y1="-25.0126839%" x2="63.8868118%" y2="131.608321%" id="bunnyLinearGradient-8">
            <stop stop-color="#E73C25" offset="0%"></stop>
            <stop stop-color="#FAA21B" offset="100%"></stop>
        </linearGradient>
        <linearGradient x1="-562.993864%" y1="49.9979816%" x2="562.904684%" y2="49.9979816%" id="bunnyLinearGradient-9">
            <stop stop-color="#FDBA12" offset="0%"></stop>
            <stop stop-color="#F7921E" offset="100%"></stop>
        </linearGradient>
        <linearGradient x1="1.98261285%" y1="41.5011038%" x2="106.167127%" y2="60.0441501%" id="bunnyLinearGradient-10">
            <stop stop-color="#FEBE2D" offset="0%"></stop>
            <stop stop-color="#F04E23" offset="100%"></stop>
        </linearGradient>
    </defs>
    <g>
        <path d="M432.021592,106.787584 C430.184219,106.948245 428.727462,108.405001 428.566802,110.242375 C428.290418,112.280702 429.395951,113.697166 431.157895,113.697166 C432.982867,113.510165 434.425685,112.067348 434.612686,110.242375 C434.854322,109.420802 434.691069,108.533288 434.172893,107.851478 C433.654718,107.169668 432.843319,106.774745 431.987045,106.787584 L432.021592,106.787584 Z M457.448853,87.0607287 C453.621555,86.9754265 450.03441,88.920106 448.017274,92.1738192 L448.708232,87.337112 L442.80054,87.337112 L439.034818,113.351687 L444.94251,113.351687 L446.808097,100.568961 C446.996583,96.5355816 450.204436,93.2978874 454.235897,93.0720648 C457.690688,93.0720648 459.31444,95.3176788 458.796221,98.9452092 L456.723347,113.351687 L462.665587,113.351687 L465.014845,97.11417 C465.91309,90.9300945 463.045614,87.0607287 457.448853,87.0607287 L457.448853,87.0607287 Z M482.357895,87.0607287 C474.899391,87.1911931 468.742512,92.9306563 468.089609,100.361673 C466.984076,108.169501 471.129825,113.524426 478.695816,113.524426 C482.766176,113.569335 486.680646,111.961161 489.54386,109.067746 L486.883671,105.612955 C485.036573,107.428661 482.563737,108.467252 479.974089,108.51498 C478.366491,108.602265 476.795543,108.01387 475.640842,106.891973 C474.486141,105.770075 473.852727,104.216733 473.893657,102.607287 L491.824022,102.607287 C493.793252,93.1411606 490.960324,87.1643725 482.426991,87.1643725 L482.357895,87.0607287 Z M474.308232,98.254251 C475.024024,94.701978 478.08037,92.1026555 481.701484,91.9665317 C483.361002,91.7970777 484.997919,92.4534036 486.080692,93.7223859 C487.163465,94.9913681 487.554009,96.7111748 487.125506,98.3233468 L474.308232,98.254251 Z M508.268826,107.098516 C507.206142,107.696313 506.028518,108.061376 504.814035,108.169501 C503.224831,108.169501 502.395682,107.340351 502.741161,104.71471 L504.434008,92.9684211 L511.34359,92.9684211 L512,88.3735493 L505.090418,88.3735493 L506.126856,81.1875843 L500.288259,81.1875843 L499.251822,88.3735493 L495.797031,88.3735493 L495.175169,92.9684211 L498.62996,92.9684211 L496.79892,105.820243 C496.004318,111.175169 498.837247,113.62807 502.810256,113.62807 C505.060554,113.571808 507.255039,112.915848 509.167072,111.727935 L508.268826,107.098516 Z" fill="url(#bunnyLinearGradient-1)"></path>
        <path d="M154.152767,78.8728745 C156.014299,78.8588776 157.70033,79.9694642 158.422427,81.6852945 C159.144524,83.4011247 158.759979,85.3831006 157.448617,86.7043977 C156.137254,88.0256948 154.158237,88.4251863 152.437006,87.7160593 C150.715775,87.0069323 149.592443,85.329331 149.592443,83.4677463 C149.592443,80.9434995 151.628591,78.8918538 154.152767,78.8728745 L154.152767,78.8728745 Z M199.790553,66.1246964 C203.67755,63.1590383 208.410395,61.5128314 213.298785,61.4261808 C219.08958,61.3426659 224.628489,63.7903841 228.465317,68.128475 C232.905545,73.7902664 234.635956,81.1160928 233.198381,88.1662618 C232.031737,100.185619 223.915041,110.399128 212.469636,114.249933 C210.142273,114.906555 207.736421,115.243607 205.318219,115.251822 C199.968838,115.498231 194.867737,112.980296 191.809987,108.584076 L191.188124,113.006208 C191.106887,113.421196 190.747208,113.723326 190.324426,113.731714 L179.649123,113.731714 C179.426591,113.745633 179.210018,113.656456 179.061808,113.489879 C178.977328,113.291199 178.977328,113.066696 179.061808,112.868016 L182.758435,87.3716599 L168.939271,87.3716599 C166.791019,87.3528968 165.054121,85.6159983 165.035358,83.4677463 L165.035358,83.4677463 C164.992281,81.3819726 166.583146,79.6244456 168.662888,79.4601889 L198.443185,79.4601889 C196.370623,82.0000283 195.03252,85.0585501 194.573819,88.3044534 C193.502834,95.7322537 197.19946,102.676383 205.249123,102.676383 C213.25889,102.296933 219.7982,96.1388382 220.65749,88.1662618 L220.65749,88.1662618 C221.693927,80.8766532 217.51363,73.9670715 209.774899,73.9670715 L175.814305,73.9670715 C173.652657,73.948109 171.910308,72.1903416 171.910391,70.02861 L171.910391,70.02861 C171.929154,67.880358 173.666053,66.1434595 175.814305,66.1246964 L185.660459,66.1246964 L188.458839,46.5705803 C188.540076,46.1555924 188.899756,45.8534616 189.322537,45.8450742 L200.377868,45.8450742 C200.585955,45.8534074 200.783288,45.9397402 200.930634,46.0869096 C201.015115,46.2855894 201.015115,46.5100921 200.930634,46.7087719 L198.132254,66.1246964 L199.790553,66.1246964 Z M267.366262,109.240486 C263.727962,113.268913 258.487187,115.471558 253.063428,115.251822 C239.451552,115.251822 235.789474,105.267476 237.482321,93.4520918 L241.835358,63.7063428 C241.914133,63.2844707 242.270591,62.970787 242.699055,62.9462888 L253.581646,62.9462888 C253.79789,62.9514086 254.000571,63.0527491 254.134413,63.2226721 C254.217196,63.4096922 254.217196,63.6229663 254.134413,63.8099865 L250.265047,90.5846154 C249.366802,96.9414305 250.265047,102.676383 257.692848,102.641835 C265.120648,102.607287 268.05722,97.5287449 269.197301,90.8264507 L273.101215,63.7063428 C273.17999,63.2844707 273.536448,62.970787 273.964912,62.9462888 L284.916599,62.9462888 C285.132843,62.9514086 285.335524,63.0527491 285.469366,63.2226721 C285.552149,63.4096922 285.552149,63.6229663 285.469366,63.8099865 L278.559784,113.006208 C278.478547,113.421196 278.118868,113.723326 277.696086,113.731714 L267.331714,113.731714 C267.109182,113.745633 266.892609,113.656456 266.744399,113.489879 C266.601438,113.316363 266.538672,113.090407 266.57166,112.868016 L267.089879,109.240486 L267.366262,109.240486 Z M304.88529,67.402969 C308.533612,63.4336901 313.730624,61.2514497 319.119028,61.4261808 C332.62726,61.4261808 336.392982,71.3759784 334.596491,83.3295547 L330.312551,113.006208 C330.260021,113.423253 329.903728,113.735009 329.483401,113.731714 L318.531714,113.731714 C318.319132,113.745576 318.113043,113.655413 317.978947,113.489879 C317.822146,113.323871 317.757491,113.091113 317.806208,112.868016 L321.641026,86.3697706 C322.539271,80.1165992 321.882861,74.174359 314.316869,74.2089069 C306.750877,74.2434548 303.952497,79.425641 302.916059,86.0242915 L298.977598,113.178947 C298.911363,113.588552 298.56322,113.893177 298.148448,113.904453 L287.196761,113.904453 C286.975076,113.913427 286.760538,113.825087 286.609447,113.662618 C286.520767,113.464815 286.520767,113.238559 286.609447,113.040756 L293.519028,63.8790823 C293.585616,63.4504055 293.949062,63.1305728 294.382726,63.1190283 L304.747099,63.1190283 C304.965911,63.1132297 305.173216,63.2168824 305.299865,63.3954116 C305.456494,63.5473209 305.522049,63.770207 305.472605,63.982726 L304.954386,67.4375169 L304.88529,67.402969 Z M356.327126,67.402969 C359.975448,63.4336901 365.17246,61.2514497 370.560864,61.4261808 C384.069096,61.4261808 387.834818,71.3759784 386.038327,83.3295547 L381.754386,113.006208 C381.688151,113.415812 381.340008,113.720438 380.925236,113.731714 L369.973549,113.731714 C369.760967,113.745576 369.554879,113.655413 369.420783,113.489879 C369.263981,113.323871 369.199326,113.091113 369.248043,112.868016 L373.117409,86.3697706 C374.015655,80.1165992 373.359244,74.174359 365.793252,74.2089069 C358.22726,74.2434548 355.42888,79.425641 354.357895,86.0242915 L350.453981,113.178947 C350.387746,113.588552 350.039603,113.893177 349.624831,113.904453 L338.569501,113.904453 C338.347816,113.913427 338.133277,113.825087 337.982186,113.662618 C337.893507,113.464815 337.893507,113.238559 337.982186,113.040756 L344.891768,63.8790823 C344.955688,63.4626239 345.300483,63.1465619 345.720918,63.1190283 L356.08529,63.1190283 C356.304103,63.1132297 356.511408,63.2168824 356.638057,63.3954116 C356.779459,63.5561141 356.842677,63.7710579 356.810796,63.982726 L356.292578,67.4375169 L356.327126,67.402969 Z M399.166532,111.002429 L388.802159,63.982726 C388.685442,63.7671937 388.685442,63.5073003 388.802159,63.2917679 C388.954379,63.0796989 389.197581,62.9516977 389.45857,62.9461661 L401.135762,62.9461661 C401.488152,62.9398475 401.794194,63.187596 401.861269,63.5336032 L407.907152,93.9703104 L422.624561,63.4645074 C422.750075,63.1541783 423.049883,62.9497635 423.384615,62.9461661 L435.303644,62.9461661 C435.566316,62.9444608 435.807307,63.0917329 435.925506,63.3263158 C436.061277,63.5614773 436.061277,63.8512083 435.925506,64.0863698 L402.137652,130.452901 C402.001623,130.749705 401.704079,130.939052 401.377598,130.9371 L389.665857,130.9371 C389.400827,130.947172 389.155463,130.797227 389.043995,130.556545 C388.908224,130.321384 388.908224,130.031653 389.043995,129.796491 L399.166532,111.002429 Z" fill="#000000"></path>
        <g>
            <path d="M72.5506073,23.6653171 L106.649393,42.182996 L75.1417004,0 C70.0490544,6.8343647 69.0574627,15.8909024 72.5506073,23.6653171 L72.5506073,23.6653171 Z" fill="url(#bunnyLinearGradient-2)"></path>
            <path d="M57.1422402,92.3465587 C61.426272,92.346728 64.9025982,95.8129972 64.9152132,100.097011 C64.9277597,104.381024 61.4718519,107.867651 57.187895,107.89312 C52.9039381,107.918312 49.4070411,104.472796 49.3689609,100.188934 C49.3505286,98.1153863 50.1613524,96.1204251 51.6211277,94.647674 C53.0809029,93.174923 55.0686107,92.3465587 57.1422402,92.3465587 L57.1422402,92.3465587 Z" fill="url(#bunnyLinearGradient-3)"></path>
            <path d="M33.4078273,6.18407557 L128.898246,58.0059379 C130.491459,58.7809308 131.50263,60.3972546 131.50263,62.1689609 C131.50263,63.9406671 130.491459,65.556991 128.898246,66.3319838 C121.676186,70.6778195 113.766829,73.7621183 105.509312,75.4526316 L85.6442645,116.219163 C85.6442645,116.219163 79.3565452,130.521997 62.0480432,125.02888 C69.3031039,117.773819 78.0782726,111.209717 78.0782726,100.050742 C78.0782724,88.4690107 68.6894239,79.0801623 57.1076923,79.0801623 C45.5259607,79.0801623 36.1371122,88.4690107 36.137112,100.050742 C36.137112,114.62996 50.5090418,120.779487 58.4896086,130.902024 C62.083956,135.990019 61.6076644,142.903463 57.3495277,147.450472 C47.434278,137.638866 28.2601889,121.090418 20.3832659,110.242375 C16.0767949,104.773118 13.7073209,98.0292309 13.6464238,91.0682861 C14.4214335,75.894497 24.6135928,62.8297508 39.14278,58.3859649 C43.4928441,57.118873 48.0205825,56.5704098 52.5473684,56.7622132 C58.8592114,57.2403945 64.9904211,59.0915482 70.5122807,62.1862348 C78.9765182,67.1611336 83.0877193,65.8483131 88.9263158,60.9425101 C92.3811066,58.1095816 96.1468286,48.8852901 90.3082321,46.7433198 C88.3992771,46.1205077 86.4480597,45.6355898 84.4696356,45.2923077 C73.6215924,43.1848853 54.6547908,41.1811066 47.6761134,37.2080972 C36.5862348,31.0931174 29.1238866,18.4831309 33.4078273,6.18407557 Z" fill="url(#bunnyLinearGradient-4)"></path>
            <path d="M77.9055331,100.154386 C82.3276653,76.9036437 58.731444,54.7238866 40.6283401,58.0404858 L41.8375169,57.7641026 C40.8701754,57.97139 39.9373819,58.2132254 39.0391363,58.4896086 C24.509949,62.9333945 14.3177897,75.9981407 13.54278,91.1719298 C13.6528921,98.1532395 16.0838883,104.899254 20.4523617,110.346019 C28.3292848,121.194062 47.5033738,137.74251 57.4186235,147.554116 C61.6767603,143.007107 62.1530518,136.093662 58.5587045,131.005668 C50.4053981,120.917679 36.0334683,114.733603 36.0334683,100.188934 C36.0334683,88.6072022 45.4223169,79.2183536 57.0040486,79.2183536 C68.5857803,79.2183536 77.9746289,88.6072022 77.9746289,100.188934 L77.9055331,100.154386 Z" fill="url(#bunnyLinearGradient-5)"></path>
            <path d="M33.4078273,6.18407557 L105.958435,45.7068826 L105.958435,45.7068826 L108.031309,46.8469636 C109.758704,48.194332 111.4861,50.8890688 109.240486,55.8639676 C105.785695,63.2917679 91.9665317,70.4777328 76.039946,64.8464238 C81.0148448,66.2974359 84.4005398,64.6391363 88.7535762,60.977058 C92.2083671,58.1441296 95.9740891,48.9198381 90.1354926,46.7778677 C88.2265375,46.1550556 86.2753201,45.6701377 84.2968961,45.3268556 C73.4488529,43.2194332 54.4820513,41.2156545 47.5033738,37.2426451 C36.5862348,31.0931174 29.1238866,18.4831309 33.4078273,6.18407557 Z" fill="url(#bunnyLinearGradient-6)"></path>
            <path d="M33.4078273,6.18407557 C40.9047233,33.8224022 86.5425101,36.1025641 109.413225,47.6415655 L33.4078273,6.18407557 Z" fill="url(#bunnyLinearGradient-7)"></path>
            <path d="M58.3859649,131.005668 C50.4053981,120.917679 36.0334683,114.733603 36.0334683,100.188934 C36.0742963,89.6400826 43.9448488,80.7635198 54.4129555,79.4601889 C37.7413202,79.5170569 24.2404037,93.0179734 24.1834853,109.689609 C24.1797569,111.732483 24.3881624,113.770225 24.8053981,115.77004 C31.4040486,123.232389 40.9392713,132.042105 48.9889339,139.504453 C52.1327935,142.441026 55.0348178,145.204858 57.4186235,147.554116 C59.402257,145.255833 60.6111128,142.390845 60.8734143,139.366262 L60.8734143,139.366262 C61.0621951,136.372572 60.1805504,133.409266 58.3859649,131.005668 L58.3859649,131.005668 Z" fill="url(#bunnyLinearGradient-8)"></path>
            <path d="M77.8018893,102.641835 C77.9109629,101.817067 77.9686541,100.986314 77.9746289,100.154386 C82.3276653,76.9036437 58.731444,54.7238866 40.6283401,58.0404858 C44.4938573,57.1063537 48.4699523,56.7110694 52.4437247,56.865857 C76.1781377,57.8331984 82.811336,83.191363 77.8018893,102.641835 Z" fill="url(#bunnyLinearGradient-9)"></path>
            <path d="M7.80782726,51.2690958 L7.80782726,51.2690958 C12.1255536,51.2881168 15.6156545,54.7937028 15.6156545,59.111471 L15.6156545,66.9192982 L7.80782726,66.9192982 C3.49568334,66.9192982 0,63.4236149 0,59.111471 L0,59.111471 C0,54.7937028 3.49010095,51.2881168 7.80782726,51.2690958 L7.80782726,51.2690958 Z" fill="url(#bunnyLinearGradient-10)"></path>
        </g>
    </g>
</svg>

<svg preserveAspectRatio="xMidYMid" viewBox="0 0 512 148" xmlns="http://www.w3.org/2000/svg">
  <defs>
    <linearGradient id="bunny-net_svg__a" x1="29.435%" x2="80.631%" y1="45.318%" y2="58.76%">
      <stop offset="0%" stop-color="#FEBE2D"/>
      <stop offset="100%" stop-color="#F85E23"/>
    </linearGradient>
    <linearGradient id="bunny-net_svg__b" x1="-33.94%" x2="153.691%" y1="50.041%" y2="50.041%">
      <stop offset="0%" stop-color="#FBAA19"/>
      <stop offset="100%" stop-color="#EF3E23"/>
    </linearGradient>
    <linearGradient id="bunny-net_svg__c" x1="32.891%" x2="67.113%" y1="96.667%" y2="3.111%">
      <stop offset="0%" stop-color="#F78D1E"/>
      <stop offset="100%" stop-color="#F37121"/>
    </linearGradient>
    <linearGradient id="bunny-net_svg__d" x1="14.403%" x2="63.227%" y1="75.177%" y2="12.448%">
      <stop offset="0%" stop-color="#FEBE2D"/>
      <stop offset="100%" stop-color="#F04E23"/>
    </linearGradient>
    <linearGradient id="bunny-net_svg__e" x1="69.88%" x2="33.101%" y1="3.214%" y2="81.581%">
      <stop offset="0%" stop-color="#EA4425"/>
      <stop offset="100%" stop-color="#FDBB27"/>
    </linearGradient>
    <linearGradient id="bunny-net_svg__f" x1="-40.127%" x2="144.708%" y1="49.989%" y2="49.989%">
      <stop offset="0%" stop-color="#F47920"/>
      <stop offset="100%" stop-color="#E93825"/>
    </linearGradient>
    <linearGradient id="bunny-net_svg__g" x1="-143.227%" x2="243.364%" y1="49.917%" y2="49.917%">
      <stop offset="0%" stop-color="#FDCA0B"/>
      <stop offset="100%" stop-color="#F5841F"/>
    </linearGradient>
    <linearGradient id="bunny-net_svg__h" x1="39.677%" x2="63.887%" y1="-25.013%" y2="131.608%">
      <stop offset="0%" stop-color="#E73C25"/>
      <stop offset="100%" stop-color="#FAA21B"/>
    </linearGradient>
    <linearGradient id="bunny-net_svg__i" x1="-562.994%" x2="562.905%" y1="49.998%" y2="49.998%">
      <stop offset="0%" stop-color="#FDBA12"/>
      <stop offset="100%" stop-color="#F7921E"/>
    </linearGradient>
    <linearGradient id="bunny-net_svg__j" x1="1.983%" x2="106.167%" y1="41.501%" y2="60.044%">
      <stop offset="0%" stop-color="#FEBE2D"/>
      <stop offset="100%" stop-color="#F04E23"/>
    </linearGradient>
  </defs>
  <path fill="url(#bunny-net_svg__a)" d="M432.022 106.788a3.8 3.8 0 0 0-3.455 3.454c-.277 2.039.829 3.455 2.59 3.455a3.87 3.87 0 0 0 3.456-3.455 2.695 2.695 0 0 0-2.626-3.454h.035Zm25.427-19.727a10.813 10.813 0 0 0-9.432 5.113l.691-4.837h-5.907l-3.766 26.015h5.908l1.865-12.783a7.877 7.877 0 0 1 7.428-7.497c3.455 0 5.078 2.246 4.56 5.873l-2.073 14.407h5.943l2.349-16.238c.898-6.184-1.97-10.053-7.566-10.053Zm24.909 0a14.58 14.58 0 0 0-14.268 13.3c-1.106 7.809 3.04 13.163 10.606 13.163a15.028 15.028 0 0 0 10.848-4.456l-2.66-3.455a10.123 10.123 0 0 1-6.91 2.902 5.77 5.77 0 0 1-6.08-5.908h17.93c1.97-9.466-.864-15.443-9.397-15.443l-.07-.103Zm-8.05 11.193a7.842 7.842 0 0 1 7.393-6.287 5.079 5.079 0 0 1 5.425 6.356l-12.818-.069Zm33.96 8.845a8.602 8.602 0 0 1-3.454 1.07c-1.59 0-2.418-.829-2.073-3.454l1.693-11.747h6.91l.656-4.594h-6.91l1.037-7.186h-5.839l-1.036 7.186h-3.455l-.622 4.594h3.455l-1.831 12.852c-.795 5.355 2.038 7.808 6.011 7.808a12.645 12.645 0 0 0 6.357-1.9l-.898-4.63Z"/>
  <path d="M154.153 78.873a4.595 4.595 0 1 1 .069 9.19 4.595 4.595 0 0 1-.07-9.19Zm45.638-12.748a22.94 22.94 0 0 1 13.508-4.699 19.865 19.865 0 0 1 15.166 6.702 24.529 24.529 0 0 1 4.733 20.038 30.644 30.644 0 0 1-20.728 26.084 26.671 26.671 0 0 1-7.152 1.002 15.581 15.581 0 0 1-13.508-6.668l-.622 4.422a.898.898 0 0 1-.864.726H179.65a.726.726 0 0 1-.587-.242.795.795 0 0 1 0-.622l3.696-25.496H168.94a3.938 3.938 0 0 1-3.904-3.904 3.938 3.938 0 0 1 3.628-4.008h29.78a17.965 17.965 0 0 0-3.87 8.844c-1.07 7.428 2.626 14.372 10.676 14.372a16.272 16.272 0 0 0 15.408-14.51c1.037-7.29-3.143-14.199-10.882-14.199h-33.96a3.938 3.938 0 0 1-3.905-3.938 3.938 3.938 0 0 1 3.904-3.904h9.846l2.799-19.554a.898.898 0 0 1 .864-.726h11.055a.83.83 0 0 1 .553.242.795.795 0 0 1 0 .622l-2.799 19.416h1.659Zm67.575 43.115a18.276 18.276 0 0 1-14.303 6.012c-13.611 0-17.274-9.985-15.58-21.8l4.352-29.746a.933.933 0 0 1 .864-.76h10.883a.726.726 0 0 1 .552.277c.083.187.083.4 0 .587l-3.869 26.775c-.898 6.356 0 12.091 7.428 12.057 7.428-.035 10.364-5.113 11.504-11.816l3.904-27.12a.933.933 0 0 1 .864-.76h10.952a.726.726 0 0 1 .552.277c.083.187.083.4 0 .587l-6.91 49.196a.898.898 0 0 1-.863.726h-10.364a.726.726 0 0 1-.588-.242.795.795 0 0 1-.172-.622l.518-3.628h.276Zm37.52-41.837a18.518 18.518 0 0 1 14.233-5.977c13.508 0 17.274 9.95 15.477 21.904l-4.283 29.676a.83.83 0 0 1-.83.726h-10.951a.656.656 0 0 1-.553-.242.691.691 0 0 1-.173-.622l3.835-26.498c.898-6.253.242-12.196-7.324-12.161-7.566.034-10.365 5.217-11.4 11.815l-3.94 27.155a.864.864 0 0 1-.829.725h-10.951a.76.76 0 0 1-.588-.241.76.76 0 0 1 0-.622l6.91-49.162a.898.898 0 0 1 .864-.76h10.364a.656.656 0 0 1 .553.276.622.622 0 0 1 .173.588l-.519 3.455-.069-.035Zm51.441 0a18.518 18.518 0 0 1 14.234-5.977c13.508 0 17.274 9.95 15.477 21.904l-4.284 29.676a.864.864 0 0 1-.829.726h-10.951a.656.656 0 0 1-.553-.242.691.691 0 0 1-.173-.622l3.87-26.498c.898-6.253.241-12.196-7.325-12.161-7.566.034-10.364 5.217-11.435 11.815l-3.904 27.155a.864.864 0 0 1-.83.725H338.57a.76.76 0 0 1-.588-.241.76.76 0 0 1 0-.622l6.91-49.162a.898.898 0 0 1 .829-.76h10.364a.656.656 0 0 1 .553.276.728.728 0 0 1 .173.588l-.518 3.455.034-.035Zm42.84 43.6-10.365-47.02a.726.726 0 0 1 0-.691.83.83 0 0 1 .657-.346h11.677a.726.726 0 0 1 .725.588l6.046 30.436 14.718-30.505a.83.83 0 0 1 .76-.519h11.919a.691.691 0 0 1 .622.38.76.76 0 0 1 0 .76l-33.788 66.367a.83.83 0 0 1-.76.484h-11.712a.658.658 0 0 1-.622-.38.76.76 0 0 1 0-.76l10.123-18.795Z"/>
  <path fill="url(#bunny-net_svg__b)" d="m72.55 23.665 34.1 18.518L75.141 0a23.493 23.493 0 0 0-2.591 23.665Z"/>
  <path fill="url(#bunny-net_svg__c)" d="M57.142 92.347a7.773 7.773 0 1 1 0 15.546 7.773 7.773 0 0 1 0-15.546Z"/>
  <path fill="url(#bunny-net_svg__d)" d="m33.408 6.184 95.49 51.822a4.63 4.63 0 0 1 0 8.326 74.243 74.243 0 0 1-23.389 9.12L85.644 116.22s-6.287 14.303-23.596 8.81c7.255-7.255 16.03-13.82 16.03-24.978 0-11.582-9.389-20.97-20.97-20.97-11.582 0-20.97 9.388-20.97 20.97 0 14.579 14.371 20.728 22.352 30.851a13.128 13.128 0 0 1-1.14 16.548c-9.916-9.811-29.09-26.36-36.967-37.208a31.439 31.439 0 0 1-6.737-19.174 36.103 36.103 0 0 1 25.497-32.682 41.63 41.63 0 0 1 13.404-1.624 43.461 43.461 0 0 1 17.965 5.424c8.465 4.975 12.576 3.662 18.414-1.243 3.455-2.833 7.22-12.058 1.382-14.2a41.941 41.941 0 0 0-5.838-1.45c-10.848-2.108-29.815-4.112-36.794-8.085-11.09-6.115-18.552-18.725-14.268-31.024Z"/>
  <path fill="url(#bunny-net_svg__e)" d="M77.906 100.154c4.422-23.25-19.175-45.43-37.278-42.114l1.21-.276c-.968.207-1.9.45-2.799.726a36.103 36.103 0 0 0-25.496 32.682 31.439 31.439 0 0 0 6.91 19.174c7.876 10.848 27.05 27.397 36.966 37.208a13.128 13.128 0 0 0 1.14-16.548c-8.154-10.088-22.526-16.272-22.526-30.817 0-11.582 9.39-20.97 20.971-20.97 11.582 0 20.97 9.388 20.97 20.97l-.068-.035Z"/>
  <path fill="url(#bunny-net_svg__f)" d="m33.408 6.184 72.55 39.523 2.073 1.14c1.728 1.347 3.455 4.042 1.21 9.017-3.455 7.428-17.274 14.614-33.201 8.982 4.975 1.451 8.36-.207 12.714-3.869 3.454-2.833 7.22-12.057 1.381-14.2a41.941 41.941 0 0 0-5.838-1.45c-10.848-2.108-29.815-4.111-36.794-8.084-10.917-6.15-18.38-18.76-14.095-31.059Z"/>
  <path fill="url(#bunny-net_svg__g)" d="M33.408 6.184c7.497 27.638 53.135 29.919 76.005 41.458L33.408 6.184Z"/>
  <path fill="url(#bunny-net_svg__h)" d="M58.386 131.006c-7.98-10.088-22.353-16.272-22.353-30.817.041-10.549 7.912-19.425 18.38-20.729-16.672.057-30.173 13.558-30.23 30.23-.003 2.042.205 4.08.622 6.08 6.599 7.462 16.134 16.272 24.184 23.734 3.144 2.937 6.046 5.7 8.43 8.05a14.441 14.441 0 0 0 3.454-8.188 12.645 12.645 0 0 0-2.487-8.36Z"/>
  <path fill="url(#bunny-net_svg__i)" d="M77.802 102.642c.109-.825.167-1.656.173-2.488 4.353-23.25-19.244-45.43-37.347-42.114a43.15 43.15 0 0 1 11.816-1.174c23.734.967 30.367 26.325 25.358 45.776Z"/>
  <path fill="url(#bunny-net_svg__j)" d="M7.808 51.27a7.842 7.842 0 0 1 7.808 7.841v7.808H7.808A7.808 7.808 0 0 1 0 59.111a7.842 7.842 0 0 1 7.808-7.842Z"/>
</svg>
